X:18701
T:Whisky before breakfast
R:Reel
O:USA
M:4/4
K:D
DB,|\
A,B,DE D2DE|F2BF ABAF|G2BG F2AF|EDEF EDB,A,|\
A,B,DE D2DE|F2BF ABAF|
G2BG FGAF|EDEF D2::\
dB|\
A2B2 d2cd|efed cBA2|
e2ef e2ef|gfed cABc|\
d2fd c2ec|BABc dBAF|G2BG F2AF|EDEF D2:|


